ui/StatusQ/src/assets/img/icons/homepage/discover.svg

<svg fill="none" height="24" viewBox="0 0 24 24" width="24" xmlns="http://www.w3.org/2000/svg"><path clip-rule="evenodd" d="m4.97165 6.70318c1.47448-1.95346 3.74456-3.27273 6.32835-3.47601v2.29891l-2.05992.82399-.26415.10566-.11555.25998-.70249 1.58059zm-1.77185 5.29662c0-1.4842.36743-2.8826 1.01629-4.10915l3.37262 1.68631-.72833 1.63874-.07698.1732.02093.1884.5 4.5.04946.4451.4249.1417 3.00001 1 .9213.3071v-.9712-2.7545l1.8467-2.3082.5409-.6762-.7745-.3872-3.90172-1.95085.61282-1.37877 2.2358-.89434.44-.17601v-.47393-2.77279c1.9147.15073 3.657.91424 5.0309 2.09447l-2.7623 3.22277-.4713.5498.5655.45236 2.0944 1.67559-.8071 2.0178-.2657.6642.6699.2512 3.3583 1.2594c-1.3335 3.1639-4.4638 5.385-8.1128 5.385-4.8601 0-8.8-3.9399-8.8-8.8zm17.3517 2.0844c.1623-.6682.2483-1.3663.2483-2.0844 0-2.16551-.7822-4.14829-2.0794-5.68129l-2.2176 2.58725 1.9345 1.54764.4055.3244-.1928.4822-.7343 1.8358zm-18.7517-2.0844c0-5.63335 4.5667-10.20004 10.2-10.20004s10.2 4.56669 10.2 10.20004c0 5.6333-4.5667 10.2-10.2 10.2s-10.2-4.5667-10.2-10.2zm7.0424-1.7961-.6255 1.4074.42961 3.8665 1.65369.5512v-2.0288-.2455l.1534-.1918 1.4591-1.8238z" fill="#09101c" fill-rule="evenodd"/></svg>

<svg width="24" height="24" viewBox="0 0 24 24" fill="none" xmlns="http://www.w3.org/2000/svg">
<g id="24/discover">
<path id="body" fill-rule="evenodd" clip-rule="evenodd" d="M4.97165 6.70318C6.44613 4.74972 8.71621 3.43045 11.3 3.22717V5.52608L9.24008 6.35007L8.97593 6.45573L8.86038 6.71571L8.15789 8.2963L4.97165 6.70318ZM3.1998 11.9998C3.1998 10.5156 3.56723 9.1172 4.21609 7.89065L7.58871 9.57696L6.86038 11.2157L6.7834 11.3889L6.80433 11.5773L7.30433 16.0773L7.35379 16.5224L7.77869 16.6641L10.7787 17.6641L11.7 17.9712V17V14.2455L13.5467 11.9373L14.0876 11.2611L13.3131 10.8739L9.41138 8.92305L10.0242 7.54428L12.26 6.64994L12.7 6.47393V6V3.22721C14.6147 3.37794 16.357 4.14145 17.7309 5.32168L14.9686 8.54445L14.4973 9.09425L15.0628 9.54661L17.1572 11.2222L16.3501 13.24L16.0844 13.9042L16.7543 14.1554L20.1126 15.4148C18.7791 18.5787 15.6488 20.7998 11.9998 20.7998C7.1397 20.7998 3.1998 16.8599 3.1998 11.9998ZM20.5515 14.0842C20.7138 13.416 20.7998 12.7179 20.7998 11.9998C20.7998 9.83429 20.0176 7.85151 18.7204 6.31851L16.5028 8.90576L18.4373 10.4534L18.8428 10.7778L18.65 11.26L17.9157 13.0958L20.5515 14.0842ZM1.7998 11.9998C1.7998 6.36645 6.3665 1.79976 11.9998 1.79976C17.6331 1.79976 22.1998 6.36645 22.1998 11.9998C22.1998 17.6331 17.6331 22.1998 11.9998 22.1998C6.3665 22.1998 1.7998 17.6331 1.7998 11.9998ZM8.8422 10.2037L8.2167 11.6111L8.64631 15.4776L10.3 16.0288V14V13.7545L10.4534 13.5627L11.9125 11.7389L8.8422 10.2037Z" fill="#09101C"/>
</g>
</svg>
